projects/samara/images/icons/muscle.svg

<svg width="87" height="86" viewBox="0 0 87 86" fill="none" xmlns="http://www.w3.org/2000/svg">
<g clip-path="url(#clip0_72_94)">
<path d="M77.1201 45.5212C68.8962 41.8895 62.2573 45.3867 58.3696 48.585C59.6892 50.2358 60.7979 52.0444 61.6703 53.969C61.839 54.3216 61.863 54.7262 61.737 55.0962C61.611 55.4663 61.3452 55.7723 60.9963 55.9489C60.6474 56.1254 60.2432 56.1585 59.8703 56.0409C59.4973 55.9234 59.1852 55.6646 59.0008 55.32C58.238 53.8892 56.9219 51.626 56.7398 51.3648C54.4438 48.1854 51.1966 45.8172 47.4667 44.602C43.7369 43.3868 39.7172 43.3874 35.9877 44.6036C35.7428 45.1549 35.6058 45.4635 35.3609 46.0149C36.053 47.7744 36.2063 49.6997 35.8015 51.5465C35.3968 53.3932 34.452 55.0781 33.0874 56.3872C32.8484 56.6231 32.5373 56.7722 32.2036 56.8106C31.87 56.8491 31.5331 56.7746 31.2467 56.5992C31.0532 56.4794 30.8902 56.3162 30.7707 56.1225C30.6512 55.9288 30.5784 55.71 30.5582 55.4833C30.538 55.2567 30.5708 55.0284 30.6541 54.8167C30.7374 54.6049 30.8689 54.4154 31.0382 54.2633C31.4587 53.9141 31.8215 53.5007 32.113 53.0385C33.5877 51.1086 32.9401 48.3375 32.5016 46.1488L31.9485 43.0553L29.2421 27.9009C30.0939 27.7078 30.8445 27.2077 31.3504 26.496L32.3672 27.602C32.6203 28.0277 32.9656 28.3914 33.3777 28.6663C33.7898 28.9412 34.2584 29.1204 34.7488 29.1906C35.2393 29.2608 35.7393 29.2204 36.2121 29.0722C36.6849 28.924 37.1184 28.6718 37.4809 28.3342L39.2154 26.6902L36.1502 23.208C35.8024 22.6925 35.2833 22.3166 34.6848 22.1469L33.2643 21.4595C32.9152 21.2805 32.6503 20.9718 32.5265 20.5996C32.4027 20.2275 32.4299 19.8217 32.6023 19.4694C32.7746 19.1171 33.0783 18.8464 33.4482 18.7155C33.818 18.5846 34.2245 18.604 34.5803 18.7694C35.5358 19.1745 36.4603 19.649 37.3463 20.1892C38.7705 21.5955 40.1182 23.0772 41.3835 24.6279L42.6096 23.4472L39.036 19.5764C38.7415 19.1114 38.2991 18.7587 37.78 18.5751C37.4066 18.421 36.4645 17.9468 36.1352 17.783C35.7783 17.6086 35.5053 17.2996 35.3763 16.9241C35.2473 16.5485 35.2729 16.1371 35.4474 15.7804C35.6219 15.4236 35.931 15.1508 36.3068 15.0219C36.6825 14.8929 37.0941 14.9185 37.451 15.0929L38.7818 15.7505C39.7949 16.1012 40.6766 16.7531 41.3088 17.6186C42.1297 18.4962 43.9258 20.4909 44.7628 21.3847C45.1646 21.139 45.5115 20.8133 45.7818 20.4278C46.0521 20.0423 46.2402 19.6053 46.3341 19.144C46.4281 18.6828 46.426 18.2071 46.328 17.7466C46.23 17.2862 46.0382 16.8508 45.7645 16.4677L39.679 8.50209C38.7009 7.23704 37.3002 6.36581 35.7327 6.04753C34.1652 5.72924 32.5355 5.98512 31.1411 6.76845L17.8632 14.2709C16.7234 14.9109 15.7276 15.7786 14.9379 16.8199C14.1482 17.8612 13.5814 19.0539 13.2728 20.3237L4.2714 58.3292C2.69182 63.563 3.17523 67.8347 8.15905 68.776C8.70404 68.8776 9.21676 69.1081 9.65431 69.4484C24.0046 79.4359 33.7231 81.0524 45.645 79.9104C48.4886 79.5403 51.2789 78.838 53.9586 77.8177C54.1536 77.7363 54.3636 77.697 54.5748 77.7021C54.7861 77.7073 54.9939 77.7568 55.1847 77.8476C59.4963 80.3382 69.0718 79.3187 72.3801 78.2359C74.6524 77.9897 76.8585 77.3206 78.8845 76.2632C80.7349 75.19 82.3522 73.758 83.6412 72.0513C84.9302 70.3446 85.865 68.3977 86.3906 66.3249C90.5474 51.4395 77.2397 45.566 77.1201 45.5212ZM22.8723 52.0971C22.9653 51.7165 23.2046 51.3879 23.5384 51.1826C23.8722 50.9773 24.2735 50.9118 24.6553 51.0003C25.0371 51.0888 25.3686 51.3242 25.5778 51.6555C25.7871 51.9867 25.8573 52.387 25.7731 52.7696C25.5173 53.8523 25.6607 54.9909 26.1771 55.9765C26.6935 56.962 27.5481 57.7284 28.5842 58.1349C28.9292 58.3251 29.1854 58.6435 29.2973 59.0211C29.4093 59.3987 29.3679 59.8051 29.1823 60.1525C29.0909 60.3261 28.9659 60.4797 28.8146 60.6047C28.6634 60.7296 28.4888 60.8233 28.301 60.8803C28.1133 60.9373 27.9161 60.9564 27.7208 60.9367C27.5256 60.917 27.3362 60.8587 27.1637 60.7653C25.5482 60.0488 24.2345 58.7897 23.4507 57.2063C22.6668 55.623 22.4622 53.8154 22.8723 52.0971ZM47.0505 73.6181C46.9739 73.8866 46.8193 74.1264 46.6064 74.3073C46.3936 74.4882 46.1319 74.602 45.8543 74.6343C38.7049 75.5453 31.4417 74.5501 24.8012 71.7499C24.4397 71.5976 24.1528 71.3092 24.0025 70.947C23.8521 70.5848 23.8505 70.1781 23.9979 69.8147C24.1453 69.4514 24.4298 69.1606 24.7901 69.0053C25.1503 68.8501 25.5572 68.8428 25.9227 68.9851C32.0824 71.5813 38.8179 72.5092 45.4506 71.6752C45.7 71.6438 45.9532 71.676 46.1868 71.7688C46.4203 71.8616 46.6266 72.012 46.7863 72.2059C46.946 72.3999 47.054 72.6311 47.1002 72.878C47.1464 73.1249 47.1293 73.3795 47.0505 73.6181ZM81.5759 59.6593C81.3914 59.7248 81.1957 59.7531 81.0002 59.7427C80.8046 59.7323 80.6131 59.6833 80.4366 59.5985C80.2601 59.5138 80.1021 59.395 79.9717 59.249C79.8413 59.1029 79.7411 58.9326 79.6769 58.7477C78.6899 56.2639 76.7988 54.2455 74.3837 53.0984C72.3199 52.1334 69.9884 51.9014 67.7747 52.4408C67.3906 52.5275 66.9878 52.4624 66.6505 52.2591C66.3133 52.0557 66.0679 51.7299 65.9655 51.3498C65.4319 47.8713 73.6291 49.2688 75.5649 50.3485C78.7552 51.8098 81.2421 54.4672 82.488 57.7463C82.6208 58.1209 82.5993 58.5329 82.4283 58.8916C82.2572 59.2504 81.9506 59.5265 81.5759 59.6593Z" fill="#171818"/>
</g>
<defs>
<clipPath id="clip0_72_94">
<rect width="87" height="86" fill="white"/>
</clipPath>
</defs>
</svg>

<svg width="87" height="86" fill="none" xmlns="http://www.w3.org/2000/svg"><g clip-path="url(#clip0_72_94)"><path d="M77.12 45.521c-8.224-3.632-14.863-.134-18.75 3.064a25.451 25.451 0 013.3 5.384 1.495 1.495 0 01-1.8 2.072 1.496 1.496 0 01-.87-.721c-.762-1.43-2.078-3.694-2.26-3.955a18.511 18.511 0 00-20.752-6.761l-.627 1.41a9.534 9.534 0 01-2.274 10.373 1.503 1.503 0 01-1.84.212 1.466 1.466 0 01-.209-2.336 5.19 5.19 0 001.075-1.224c1.475-1.93.827-4.702.389-6.89l-.554-3.094-2.706-15.154a3.55 3.55 0 002.108-1.405l1.017 1.106a3.317 3.317 0 005.114.732l1.734-1.644-3.065-3.482a2.635 2.635 0 00-1.465-1.061l-1.42-.688a1.497 1.497 0 011.315-2.69c.956.405 1.88.88 2.766 1.42a55.931 55.931 0 014.038 4.439l1.226-1.18-3.574-3.872a2.456 2.456 0 00-1.256-1c-.373-.155-1.316-.63-1.645-.793a1.498 1.498 0 111.316-2.69l1.33.658a5.26 5.26 0 012.528 1.868c.82.877 2.617 2.872 3.454 3.766a3.43 3.43 0 001.002-4.917l-6.086-7.966a6.665 6.665 0 00-8.538-1.734l-13.278 7.503a9.523 9.523 0 00-4.59 6.053L4.27 58.329c-1.58 5.234-1.096 9.506 3.888 10.447a3.472 3.472 0 011.495.672c14.35 9.988 24.07 11.604 35.991 10.462a36.661 36.661 0 008.314-2.092 1.505 1.505 0 011.226.03c4.311 2.49 13.887 1.47 17.195.388a18.324 18.324 0 006.505-1.973 16.055 16.055 0 007.506-9.938c4.156-14.886-9.151-20.759-9.27-20.804zm-54.248 6.576a1.488 1.488 0 012.901.673 4.62 4.62 0 002.811 5.365 1.498 1.498 0 01-.863 2.802 1.483 1.483 0 01-.557-.172 7.565 7.565 0 01-4.292-8.668zM47.05 73.618a1.413 1.413 0 01-1.196 1.016 40.884 40.884 0 01-21.053-2.884 1.492 1.492 0 011.122-2.765 38.056 38.056 0 0019.528 2.69 1.49 1.49 0 011.6 1.943zM81.577 59.66a1.485 1.485 0 01-1.9-.911 10.58 10.58 0 00-5.292-5.65 10.01 10.01 0 00-6.61-.657 1.527 1.527 0 01-1.808-1.091c-.534-3.479 7.663-2.081 9.599-1.002a13.355 13.355 0 016.923 7.398 1.498 1.498 0 01-.912 1.913z" fill="#171818"/></g><defs><clipPath id="clip0_72_94"><path fill="#fff" d="M0 0h87v86H0z"/></clipPath></defs></svg>
